build/Karasa-Jaga/scalable/status/network-cellular-3g-symbolic.svg

<svg height="16" width="16" xmlns="http://www.w3.org/2000/svg"><path d="m2.0625 0c-1.1705967.42310773-2.03191776 1.0347682-2.0625 2.0625v11.875c0 1.1507.91177 2.0625 2.0625 2.0625h11.875c1.1507 0 2.0625-.91177 2.0625-2.0625v-11.875c0-1.15-.9125-2.0625-2.0625-2.0625zm-.78125 3.21875h5.53125l-1.4375 1.4375h-2.65625zm9.0625 0h4.375l-1.4375 1.4375h-2.9375l-.6875-.71875zm-3.28125.28125v3.6875l-.53125.5625-.875-.90625v-1.9375zm2.3125.71875.71875.6875v1.75l-.90625.875-.53125-.53125v-2.09375zm2.21875 2.875h1.625l.6875.71875-.6875.71875h-1.625l-.71875-.71875zm-9.0625.1875h3.03125l.71875.71875-.71875.71875h-3.03125l-.71875-.71875zm6.65625.78125.90625.90625v2.125l-.71875.6875-.71875-.6875v-2.5zm5 0 .53125.53125v2.5l-.71875.6875-.71875-.6875v-2.125zm-7.65625.21875.53125.53125v3.6875l-1.40625-1.40625v-1.9375zm-3.8125 3.0625h2.65625l1.4375 1.4375h-5.53125zm7.625 0h2.6875l.71875.71875-.71875.71875h-2.6875l-.6875-.71875z" fill="#bebebe"/></svg>

<?xml version="1.0" encoding="UTF-8" standalone="no"?>
<!-- Created with Inkscape (http://www.inkscape.org/) -->

<svg
   xmlns:dc="http://purl.org/dc/elements/1.1/"
   xmlns:cc="http://creativecommons.org/ns#"
   xmlns:rdf="http://www.w3.org/1999/02/22-rdf-syntax-ns#"
   xmlns:svg="http://www.w3.org/2000/svg"
   xmlns="http://www.w3.org/2000/svg"
   xmlns:sodipodi="http://sodipodi.sourceforge.net/DTD/sodipodi-0.dtd"
   xmlns:inkscape="http://www.inkscape.org/namespaces/inkscape"
   id="svg7384"
   height="16"
   width="16"
   version="1.1"
   inkscape:version="0.48.3.1 r9886"
   sodipodi:docname="network-cellular-3g-symbolic.svg">
  <defs
     id="defs9" />
  <sodipodi:namedview
     pagecolor="#ffffff"
     bordercolor="#666666"
     borderopacity="1"
     objecttolerance="10"
     gridtolerance="10"
     guidetolerance="10"
     inkscape:pageopacity="0"
     inkscape:pageshadow="2"
     inkscape:window-width="1366"
     inkscape:window-height="711"
     id="namedview7"
     showgrid="false"
     inkscape:zoom="10.429825"
     inkscape:cx="3.049187"
     inkscape:cy="6.329023"
     inkscape:window-x="0"
     inkscape:window-y="0"
     inkscape:window-maximized="1"
     inkscape:current-layer="svg7384" />
  <metadata
     id="metadata90">
    <rdf:RDF>
      <cc:Work
         rdf:about="">
        <dc:format>image/svg+xml</dc:format>
        <dc:type
           rdf:resource="http://purl.org/dc/dcmitype/StillImage" />
        <dc:title>Gnome Symbolic Icon Theme</dc:title>
      </cc:Work>
    </rdf:RDF>
  </metadata>
  <title
     id="title9167">Gnome Symbolic Icon Theme</title>
  <path
     style="color:#bebebe;fill:#bebebe"
     d="M 2.0625 0 C 0.8919033 0.42310773 0.03058224 1.0347682 0 2.0625 L 0 13.9375 C 0 15.0882 0.91177 16 2.0625 16 L 13.9375 16 C 15.0882 16 16 15.08823 16 13.9375 L 16 2.0625 C 16 0.9125 15.0875 0 13.9375 0 L 2.0625 0 z M 1.28125 3.21875 L 6.8125 3.21875 L 5.375 4.65625 L 2.71875 4.65625 L 1.28125 3.21875 z M 10.34375 3.21875 L 14.71875 3.21875 L 13.28125 4.65625 L 10.34375 4.65625 L 9.65625 3.9375 L 10.34375 3.21875 z M 7.0625 3.5 L 7.0625 7.1875 L 6.53125 7.75 L 5.65625 6.84375 L 5.65625 4.90625 L 7.0625 3.5 z M 9.375 4.21875 L 10.09375 4.90625 L 10.09375 6.65625 L 9.1875 7.53125 L 8.65625 7 L 8.65625 4.90625 L 9.375 4.21875 z M 11.59375 7.09375 L 13.21875 7.09375 L 13.90625 7.8125 L 13.21875 8.53125 L 11.59375 8.53125 L 10.875 7.8125 L 11.59375 7.09375 z M 2.53125 7.28125 L 5.5625 7.28125 L 6.28125 8 L 5.5625 8.71875 L 2.53125 8.71875 L 1.8125 8 L 2.53125 7.28125 z M 9.1875 8.0625 L 10.09375 8.96875 L 10.09375 11.09375 L 9.375 11.78125 L 8.65625 11.09375 L 8.65625 8.59375 L 9.1875 8.0625 z M 14.1875 8.0625 L 14.71875 8.59375 L 14.71875 11.09375 L 14 11.78125 L 13.28125 11.09375 L 13.28125 8.96875 L 14.1875 8.0625 z M 6.53125 8.28125 L 7.0625 8.8125 L 7.0625 12.5 L 5.65625 11.09375 L 5.65625 9.15625 L 6.53125 8.28125 z M 2.71875 11.34375 L 5.375 11.34375 L 6.8125 12.78125 L 1.28125 12.78125 L 2.71875 11.34375 z M 10.34375 11.34375 L 13.03125 11.34375 L 13.75 12.0625 L 13.03125 12.78125 L 10.34375 12.78125 L 9.65625 12.0625 L 10.34375 11.34375 z "
     id="path1244" />
</svg>
